X:25
T:Mr. and Mrs. Maple
M:3/4
L:1/8
Z:abc by Bruce Osborne - bosborne@kos.net
K:Bb
Bc|d3 ^c de|d2 B2 d2|f3 =e fg|f2 e2 d2|
c4 cd|f2 f2 e2|d3 ^c de|d2 F2 B2|
d3 ^c de|d2 B2 d2|f3 ^e fg|f2 e2 d2|
c3 c de|d3 A cA|B3 A Bc|B4:|
|:DE|F3 =E FG|F2 D2 F2|d3 ^c de|dB FB dB|
c4 cd|f2 f2 e2|d3 ^c de|d2 D2 E2|
F3 =E FG|F2 D2 F2|d3 ^c de|dB FB dB|
c3 c de|d3 A cA|B3 A Bc|B4:|
